content/uploads/ig.svg

<svg width="1000" height="1000" viewBox="0 0 1001 1000" xmlns="http://www.w3.org/2000/svg" xml:space="preserve" style="fill-rule:evenodd;clip-rule:evenodd;stroke-linejoin:round;stroke-miterlimit:2"><path d="M771.592 68.572c-208.745 0-269.796.215-281.663 1.2-42.838 3.561-69.494 10.308-98.535 24.771-22.38 11.116-40.031 24.002-57.451 42.065-31.724 32.941-50.952 73.468-57.912 121.641-3.384 23.387-4.368 28.156-4.568 147.613-.077 39.818 0 92.223 0 162.513 0 208.633.23 269.639 1.23 281.486 3.461 41.696 9.998 67.929 23.842 96.624 26.457 54.925 76.985 96.165 136.513 111.545 20.611 5.31 43.376 8.23 72.601 9.62 12.383.54 138.59.92 264.874.92 126.284 0 252.567-.15 264.637-.77 33.85-1.59 53.49-4.23 75.22-9.85 59.91-15.46 109.52-56.08 136.51-111.774 13.58-28.002 20.46-55.235 23.58-94.754.67-8.616.96-145.989.96-283.177 0-137.212-.31-274.332-.99-282.948-3.15-40.157-10.03-67.159-24.05-95.7-11.49-23.364-24.26-40.811-42.79-58.651-33.08-31.603-73.54-50.835-121.74-57.789-23.36-3.378-28.01-4.378-147.53-4.585H771.592z" style="fill:url(#a);fill-rule:nonzero" transform="translate(-271.429 -68.572)"/><path d="M771.592 68.572c-208.745 0-269.796.215-281.663 1.2-42.838 3.561-69.494 10.308-98.535 24.771-22.38 11.116-40.031 24.002-57.451 42.065-31.724 32.941-50.952 73.468-57.912 121.641-3.384 23.387-4.368 28.156-4.568 147.613-.077 39.818 0 92.223 0 162.513 0 208.633.23 269.639 1.23 281.486 3.461 41.696 9.998 67.929 23.842 96.624 26.457 54.925 76.985 96.165 136.513 111.545 20.611 5.31 43.376 8.23 72.601 9.62 12.383.54 138.59.92 264.874.92 126.284 0 252.567-.15 264.637-.77 33.85-1.59 53.49-4.23 75.22-9.85 59.91-15.46 109.52-56.08 136.51-111.774 13.58-28.002 20.46-55.235 23.58-94.754.67-8.616.96-145.989.96-283.177 0-137.212-.31-274.332-.99-282.948-3.15-40.157-10.03-67.159-24.05-95.7-11.49-23.364-24.26-40.811-42.79-58.651-33.08-31.603-73.54-50.835-121.74-57.789-23.36-3.378-28.01-4.378-147.53-4.585H771.592z" style="fill:url(#b);fill-rule:nonzero" transform="translate(-271.429 -68.572)"/><path d="M771.592 68.572c-208.745 0-269.796.215-281.663 1.2-42.838 3.561-69.494 10.308-98.535 24.771-22.38 11.116-40.031 24.002-57.451 42.065-31.724 32.941-50.952 73.468-57.912 121.641-3.384 23.387-4.368 28.156-4.568 147.613-.077 39.818 0 92.223 0 162.513 0 208.633.23 269.639 1.23 281.486 3.461 41.696 9.998 67.929 23.842 96.624 26.457 54.925 76.985 96.165 136.513 111.545 20.611 5.31 43.376 8.23 72.601 9.62 12.383.54 138.59.92 264.874.92 126.284 0 252.567-.15 264.637-.77 33.85-1.59 53.49-4.23 75.22-9.85 59.91-15.46 109.52-56.08 136.51-111.774 13.58-28.002 20.46-55.235 23.58-94.754.67-8.616.96-145.989.96-283.177 0-137.212-.31-274.332-.99-282.948-3.15-40.157-10.03-67.159-24.05-95.7-11.49-23.364-24.26-40.811-42.79-58.651-33.08-31.603-73.54-50.835-121.74-57.789-23.36-3.378-28.01-4.378-147.53-4.585H771.592z" style="fill:url(#c);fill-rule:nonzero" transform="translate(-271.429 -68.572)"/><path d="M771.592 68.572c-208.745 0-269.796.215-281.663 1.2-42.838 3.561-69.494 10.308-98.535 24.771-22.38 11.116-40.031 24.002-57.451 42.065-31.724 32.941-50.952 73.468-57.912 121.641-3.384 23.387-4.368 28.156-4.568 147.613-.077 39.818 0 92.223 0 162.513 0 208.633.23 269.639 1.23 281.486 3.461 41.696 9.998 67.929 23.842 96.624 26.457 54.925 76.985 96.165 136.513 111.545 20.611 5.31 43.376 8.23 72.601 9.62 12.383.54 138.59.92 264.874.92 126.284 0 252.567-.15 264.637-.77 33.85-1.59 53.49-4.23 75.22-9.85 59.91-15.46 109.52-56.08 136.51-111.774 13.58-28.002 20.46-55.235 23.58-94.754.67-8.616.96-145.989.96-283.177 0-137.212-.31-274.332-.99-282.948-3.15-40.157-10.03-67.159-24.05-95.7-11.49-23.364-24.26-40.811-42.79-58.651-33.08-31.603-73.54-50.835-121.74-57.789-23.36-3.378-28.01-4.378-147.53-4.585H771.592z" style="fill:url(#d);fill-rule:nonzero" transform="translate(-271.429 -68.572)"/><path d="M500.202 128.402c-100.976 0-113.649.441-153.308 2.245-39.582 1.811-66.6 8.073-90.241 17.261-24.454 9.489-45.198 22.183-65.864 42.841-20.682 20.652-33.385 41.38-42.913 65.808-9.218 23.631-15.492 50.637-17.273 90.174-1.774 39.63-2.239 52.301-2.239 153.202 0 100.902.449 113.526 2.246 153.156 1.821 39.553 8.087 66.551 17.274 90.174 9.504 24.436 22.208 45.164 42.882 65.815 20.659 20.667 41.402 33.392 65.841 42.881 23.656 9.188 50.682 15.45 90.256 17.261 39.66 1.803 52.324 2.245 153.293 2.245 100.984 0 113.618-.441 153.278-2.245 39.582-1.811 66.631-8.073 90.287-17.261 24.446-9.489 45.159-22.214 65.818-42.881 20.681-20.651 33.385-41.379 42.912-65.807 9.14-23.631 15.415-50.637 17.274-90.174 1.781-39.63 2.246-52.262 2.246-153.164 0-100.902-.465-113.564-2.246-153.195-1.859-39.552-8.134-66.55-17.274-90.173-9.527-24.436-22.231-45.165-42.912-65.816-20.682-20.666-41.364-33.36-65.841-42.842-23.703-9.187-50.737-15.449-90.319-17.26-39.659-1.804-52.285-2.245-153.293-2.245h.116zm-33.354 66.953c9.9-.015 20.945 0 33.354 0 99.273 0 111.039.356 150.242 2.136 36.251 1.657 55.926 7.709 69.032 12.795 17.351 6.734 29.721 14.784 42.727 27.787 13.013 13.004 21.069 25.388 27.823 42.726 5.09 13.081 11.155 32.742 12.804 68.966 1.782 39.165 2.169 50.931 2.169 150.083s-.387 110.918-2.169 150.083c-1.657 36.225-7.714 55.885-12.804 68.966-6.738 17.338-14.81 29.684-27.823 42.679-13.013 13.004-25.369 21.054-42.727 27.788-13.091 5.109-32.781 11.146-69.032 12.802-39.195 1.78-50.969 2.167-150.242 2.167-99.28 0-111.046-.387-150.241-2.167-36.251-1.671-55.925-7.724-69.04-12.81-17.351-6.734-29.745-14.784-42.757-27.787-13.014-13.004-21.069-25.357-27.824-42.703-5.089-13.081-11.154-32.741-12.804-68.966-1.782-39.165-2.138-50.93-2.138-150.145 0-99.214.356-110.918 2.138-150.083 1.658-36.224 7.715-55.884 12.804-68.981 6.739-17.338 14.81-29.722 27.824-42.726 13.012-13.004 25.406-21.053 42.757-27.803 13.107-5.109 32.789-11.146 69.04-12.81 34.299-1.548 47.592-2.012 116.887-2.09v.093zm231.822 61.69c-24.632 0-44.617 19.946-44.617 44.568 0 24.614 19.985 44.584 44.617 44.584 24.632 0 44.617-19.97 44.617-44.584 0-24.614-19.985-44.584-44.617-44.584v.016zm-198.468 52.091c-105.446 0-190.938 85.429-190.938 190.797s85.492 190.758 190.938 190.758c105.447 0 190.908-85.39 190.908-190.758 0-105.368-85.469-190.797-190.915-190.797h.007zm0 66.953c68.444 0 123.936 55.444 123.936 123.844 0 68.393-55.492 123.844-123.936 123.844-68.451 0-123.935-55.451-123.935-123.844 0-68.4 55.484-123.844 123.935-123.844z" style="fill:#fff;fill-rule:nonzero"/><defs><radialGradient id="a" cx="0" cy="0" r="1" gradientUnits="userSpaceOnUse" gradientTransform="matrix(-614.955 173.432 -124.951 -443.045 1239.14 537.284)"><stop offset="0" style="stop-color:#ff005f;stop-opacity:1"/><stop offset="1" style="stop-color:#fc01d8;stop-opacity:1"/></radialGradient><radialGradient id="b" cx="0" cy="0" r="1" gradientUnits="userSpaceOnUse" gradientTransform="scale(846.893 798.219) rotate(-90 1.035 .4)"><stop offset="0" style="stop-color:#fc0;stop-opacity:1"/><stop offset=".12" style="stop-color:#fc0;stop-opacity:1"/><stop offset=".57" style="stop-color:#fe4a05;stop-opacity:1"/><stop offset=".69" style="stop-color:#ff0f3f;stop-opacity:1"/><stop offset="1" style="stop-color:#fe0657;stop-opacity:0"/></radialGradient><radialGradient id="c" cx="0" cy="0" r="1" gradientUnits="userSpaceOnUse" gradientTransform="matrix(165.682 -285.475 371.656 215.7 796.698 1054.47)"><stop offset="0" style="stop-color:#fc0;stop-opacity:1"/><stop offset="1" style="stop-color:#fc0;stop-opacity:0"/></radialGradient><radialGradient id="d" cx="0" cy="0" r="1" gradientUnits="userSpaceOnUse" gradientTransform="matrix(-608.204 171.26 -58.3332 -207.219 407.107 109.291)"><stop offset="0" style="stop-color:#780cff;stop-opacity:1"/><stop offset="1" style="stop-color:#820bff;stop-opacity:0"/></radialGradient></defs></svg>

<?xml version="1.0" encoding="UTF-8" standalone="no"?>
<svg width="1000" height="1000" viewBox="0 0 1001 1000" version="1.1" xmlns="http://www.w3.org/2000/svg" xmlns:xlink="http://www.w3.org/1999/xlink" xml:space="preserve" xmlns:serif="http://www.serif.com/" style="fill-rule:evenodd;clip-rule:evenodd;stroke-linejoin:round;stroke-miterlimit:2;">
    <g id="Layer-1" serif:id="Layer 1" transform="matrix(1,0,0,1,8.39895e-05,2.98428e-13)">
        <g transform="matrix(1,0,0,1,-271.429,-68.5716)">
            <path d="M771.592,68.572C562.847,68.572 501.796,68.787 489.929,69.772C447.091,73.333 420.435,80.08 391.394,94.543C369.014,105.659 351.363,118.545 333.943,136.608C302.219,169.549 282.991,210.076 276.031,258.249C272.647,281.636 271.663,286.405 271.463,405.862C271.386,445.68 271.463,498.085 271.463,568.375C271.463,777.008 271.693,838.014 272.693,849.861C276.154,891.557 282.691,917.79 296.535,946.485C322.992,1001.41 373.52,1042.65 433.048,1058.03C453.659,1063.34 476.424,1066.26 505.649,1067.65C518.032,1068.19 644.239,1068.57 770.523,1068.57C896.807,1068.57 1023.09,1068.42 1035.16,1067.8C1069.01,1066.21 1088.65,1063.57 1110.38,1057.95C1170.29,1042.49 1219.9,1001.87 1246.89,946.176C1260.47,918.174 1267.35,890.941 1270.47,851.422C1271.14,842.806 1271.43,705.433 1271.43,568.245C1271.43,431.033 1271.12,293.913 1270.44,285.297C1267.29,245.14 1260.41,218.138 1246.39,189.597C1234.9,166.233 1222.13,148.786 1203.6,130.946C1170.52,99.343 1130.06,80.111 1081.86,73.157C1058.5,69.779 1053.85,68.779 934.33,68.572L771.592,68.572Z" style="fill:url(#_Radial1);fill-rule:nonzero;"/>
        </g>
        <g transform="matrix(1,0,0,1,-271.429,-68.5716)">
            <path d="M771.592,68.572C562.847,68.572 501.796,68.787 489.929,69.772C447.091,73.333 420.435,80.08 391.394,94.543C369.014,105.659 351.363,118.545 333.943,136.608C302.219,169.549 282.991,210.076 276.031,258.249C272.647,281.636 271.663,286.405 271.463,405.862C271.386,445.68 271.463,498.085 271.463,568.375C271.463,777.008 271.693,838.014 272.693,849.861C276.154,891.557 282.691,917.79 296.535,946.485C322.992,1001.41 373.52,1042.65 433.048,1058.03C453.659,1063.34 476.424,1066.26 505.649,1067.65C518.032,1068.19 644.239,1068.57 770.523,1068.57C896.807,1068.57 1023.09,1068.42 1035.16,1067.8C1069.01,1066.21 1088.65,1063.57 1110.38,1057.95C1170.29,1042.49 1219.9,1001.87 1246.89,946.176C1260.47,918.174 1267.35,890.941 1270.47,851.422C1271.14,842.806 1271.43,705.433 1271.43,568.245C1271.43,431.033 1271.12,293.913 1270.44,285.297C1267.29,245.14 1260.41,218.138 1246.39,189.597C1234.9,166.233 1222.13,148.786 1203.6,130.946C1170.52,99.343 1130.06,80.111 1081.86,73.157C1058.5,69.779 1053.85,68.779 934.33,68.572L771.592,68.572Z" style="fill:url(#_Radial2);fill-rule:nonzero;"/>
        </g>
        <g transform="matrix(1,0,0,1,-271.429,-68.5716)">
            <path d="M771.592,68.572C562.847,68.572 501.796,68.787 489.929,69.772C447.091,73.333 420.435,80.08 391.394,94.543C369.014,105.659 351.363,118.545 333.943,136.608C302.219,169.549 282.991,210.076 276.031,258.249C272.647,281.636 271.663,286.405 271.463,405.862C271.386,445.68 271.463,498.085 271.463,568.375C271.463,777.008 271.693,838.014 272.693,849.861C276.154,891.557 282.691,917.79 296.535,946.485C322.992,1001.41 373.52,1042.65 433.048,1058.03C453.659,1063.34 476.424,1066.26 505.649,1067.65C518.032,1068.19 644.239,1068.57 770.523,1068.57C896.807,1068.57 1023.09,1068.42 1035.16,1067.8C1069.01,1066.21 1088.65,1063.57 1110.38,1057.95C1170.29,1042.49 1219.9,1001.87 1246.89,946.176C1260.47,918.174 1267.35,890.941 1270.47,851.422C1271.14,842.806 1271.43,705.433 1271.43,568.245C1271.43,431.033 1271.12,293.913 1270.44,285.297C1267.29,245.14 1260.41,218.138 1246.39,189.597C1234.9,166.233 1222.13,148.786 1203.6,130.946C1170.52,99.343 1130.06,80.111 1081.86,73.157C1058.5,69.779 1053.85,68.779 934.33,68.572L771.592,68.572Z" style="fill:url(#_Radial3);fill-rule:nonzero;"/>
        </g>
        <g transform="matrix(1,0,0,1,-271.429,-68.5716)">
            <path d="M771.592,68.572C562.847,68.572 501.796,68.787 489.929,69.772C447.091,73.333 420.435,80.08 391.394,94.543C369.014,105.659 351.363,118.545 333.943,136.608C302.219,169.549 282.991,210.076 276.031,258.249C272.647,281.636 271.663,286.405 271.463,405.862C271.386,445.68 271.463,498.085 271.463,568.375C271.463,777.008 271.693,838.014 272.693,849.861C276.154,891.557 282.691,917.79 296.535,946.485C322.992,1001.41 373.52,1042.65 433.048,1058.03C453.659,1063.34 476.424,1066.26 505.649,1067.65C518.032,1068.19 644.239,1068.57 770.523,1068.57C896.807,1068.57 1023.09,1068.42 1035.16,1067.8C1069.01,1066.21 1088.65,1063.57 1110.38,1057.95C1170.29,1042.49 1219.9,1001.87 1246.89,946.176C1260.47,918.174 1267.35,890.941 1270.47,851.422C1271.14,842.806 1271.43,705.433 1271.43,568.245C1271.43,431.033 1271.12,293.913 1270.44,285.297C1267.29,245.14 1260.41,218.138 1246.39,189.597C1234.9,166.233 1222.13,148.786 1203.6,130.946C1170.52,99.343 1130.06,80.111 1081.86,73.157C1058.5,69.779 1053.85,68.779 934.33,68.572L771.592,68.572Z" style="fill:url(#_Radial4);fill-rule:nonzero;"/>
        </g>
        <path d="M500.202,128.402C399.226,128.402 386.553,128.843 346.894,130.647C307.312,132.458 280.294,138.72 256.653,147.908C232.199,157.397 211.455,170.091 190.789,190.749C170.107,211.401 157.404,232.129 147.876,256.557C138.658,280.188 132.384,307.194 130.603,346.731C128.829,386.361 128.364,399.032 128.364,499.933C128.364,600.835 128.813,613.459 130.61,653.089C132.431,692.642 138.697,719.64 147.884,743.263C157.388,767.699 170.092,788.427 190.766,809.078C211.425,829.745 232.168,842.47 256.607,851.959C280.263,861.147 307.289,867.409 346.863,869.22C386.523,871.023 399.187,871.465 500.156,871.465C601.14,871.465 613.774,871.024 653.434,869.22C693.016,867.409 720.065,861.147 743.721,851.959C768.167,842.47 788.88,829.745 809.539,809.078C830.22,788.427 842.924,767.699 852.451,743.271C861.591,719.64 867.866,692.634 869.725,653.097C871.506,613.467 871.971,600.835 871.971,499.933C871.971,399.031 871.506,386.369 869.725,346.738C867.866,307.186 861.591,280.188 852.451,256.565C842.924,232.129 830.22,211.4 809.539,190.749C788.857,170.083 768.175,157.389 743.698,147.907C719.995,138.72 692.961,132.458 653.379,130.647C613.72,128.843 601.094,128.402 500.086,128.402L500.202,128.402ZM466.848,195.355C476.748,195.34 487.793,195.355 500.202,195.355C599.475,195.355 611.241,195.711 650.444,197.491C686.695,199.148 706.37,205.2 719.476,210.286C736.827,217.02 749.197,225.07 762.203,238.073C775.216,251.077 783.272,263.461 790.026,280.799C795.116,293.88 801.181,313.541 802.83,349.765C804.612,388.93 804.999,400.696 804.999,499.848C804.999,599 804.612,610.766 802.83,649.931C801.173,686.156 795.116,705.816 790.026,718.897C783.288,736.235 775.216,748.581 762.203,761.576C749.19,774.58 736.834,782.63 719.476,789.364C706.385,794.473 686.695,800.51 650.444,802.166C611.249,803.946 599.475,804.333 500.202,804.333C400.922,804.333 389.156,803.946 349.961,802.166C313.71,800.495 294.036,794.442 280.921,789.356C263.57,782.622 251.176,774.572 238.164,761.569C225.15,748.565 217.095,736.212 210.34,718.866C205.251,705.785 199.186,686.125 197.536,649.9C195.754,610.735 195.398,598.97 195.398,499.755C195.398,400.541 195.754,388.837 197.536,349.672C199.194,313.448 205.251,293.788 210.34,280.691C217.079,263.353 225.15,250.969 238.164,237.965C251.176,224.961 263.57,216.912 280.921,210.162C294.028,205.053 313.71,199.016 349.961,197.352C384.26,195.804 397.553,195.34 466.848,195.262L466.848,195.355ZM698.67,257.045C674.038,257.045 654.053,276.991 654.053,301.613C654.053,326.227 674.038,346.197 698.67,346.197C723.302,346.197 743.287,326.227 743.287,301.613C743.287,276.999 723.302,257.029 698.67,257.029L698.67,257.045ZM500.202,309.136C394.756,309.136 309.264,394.565 309.264,499.933C309.264,605.301 394.756,690.691 500.202,690.691C605.649,690.691 691.11,605.301 691.11,499.933C691.11,394.565 605.641,309.136 500.195,309.136L500.202,309.136ZM500.202,376.089C568.646,376.089 624.138,431.533 624.138,499.933C624.138,568.326 568.646,623.777 500.202,623.777C431.751,623.777 376.267,568.326 376.267,499.933C376.267,431.533 431.751,376.089 500.202,376.089Z" style="fill:white;fill-rule:nonzero;"/>
    </g>
    <defs>
        <radialGradient id="_Radial1" cx="0" cy="0" r="1" gradientUnits="userSpaceOnUse" gradientTransform="matrix(-614.955,173.432,-124.951,-443.045,1239.14,537.284)"><stop offset="0" style="stop-color:rgb(255,0,95);stop-opacity:1"/><stop offset="1" style="stop-color:rgb(252,1,216);stop-opacity:1"/></radialGradient>
        <radialGradient id="_Radial2" cx="0" cy="0" r="1" gradientUnits="userSpaceOnUse" gradientTransform="matrix(0,-798.219,846.893,0,537.046,1145.59)"><stop offset="0" style="stop-color:rgb(255,204,0);stop-opacity:1"/><stop offset="0.12" style="stop-color:rgb(255,204,0);stop-opacity:1"/><stop offset="0.57" style="stop-color:rgb(254,74,5);stop-opacity:1"/><stop offset="0.69" style="stop-color:rgb(255,15,63);stop-opacity:1"/><stop offset="1" style="stop-color:rgb(254,6,87);stop-opacity:0"/></radialGradient>
        <radialGradient id="_Radial3" cx="0" cy="0" r="1" gradientUnits="userSpaceOnUse" gradientTransform="matrix(165.682,-285.475,371.656,215.7,796.698,1054.47)"><stop offset="0" style="stop-color:rgb(255,204,0);stop-opacity:1"/><stop offset="1" style="stop-color:rgb(255,204,0);stop-opacity:0"/></radialGradient>
        <radialGradient id="_Radial4" cx="0" cy="0" r="1" gradientUnits="userSpaceOnUse" gradientTransform="matrix(-608.204,171.26,-58.3332,-207.219,407.107,109.291)"><stop offset="0" style="stop-color:rgb(120,12,255);stop-opacity:1"/><stop offset="1" style="stop-color:rgb(130,11,255);stop-opacity:0"/></radialGradient>
    </defs>
</svg>
